X: 16787
T: Harp And The Shamrock, The
R: hornpipe
M: 4/4
K: Gmajor
gf|:edBc dBGB|AGAB GABd|e2ed efgf|edBG A2BA|
GEED E2DE|GABG A2gf|eage dBGB|1 ~A3B G2gf:|2 ~A3B GABd||
|:e2ed efgf|eddB d3A|GABB cdeg|dBGB A2BA|
G~E3 D3E|GABG A2gf|eage dBGB|1 ~A3B GABd:|2 ~A3B G2gf||

